X:1
T:Title
%%score { ( 1 4 ) | ( 2 3 ) }
L:1/8
M:3/4
K:F
V:1 treble nm="Grand Piano"
V:4 treble 
V:2 bass 
V:3 bass 
V:1
 z2 z2[Q:1/4=100] C2 | F>E F2 G2 | A>_A =A2 c2 | B>A B2 F2 | A4 A2 | [EG]>[FA] [GB]2 [Bd]2 | %6
 [Ac]>[GB] A2 A2 | G2 c2 d2 | [Ec]4 C2 | F>E F2 G2 | A>_A =A2 c2 | B>A B2 F2 | A4 A>B | %13
 c>=B c2 ^c2 | e2 d2 B2 | A2 [EB]2 [EG]2 |[M:2/4] F4 |[M:1/4] A2 |[M:3/4] A2 F2 A2 | %19
 [CEG]2 [CE]2 [B,EG]2 | [A,F]4 [A,_EF]2 | [B,DF]2 [B,D]2 [B,DF]2 | [A,CF]2 [A,C]2 [A,CF]2 | %23
 [G,CE]4 [CEG]2 | [CEG]2 [CE]2 [B,EG]2 | F2- [FA]2 c2 | c2 G2 [CGB]2 | F2- [Fc]2 d2 | %28
 c2 A2 [DFB]2 | [CFA]2 F2 [B,EG]2 |[M:2/4] [A,F]4 |] %31
V:2
 z2 z2 [F,A,]2 | [F,A,C]>[F,G,C] [F,A,C]2 [F,B,C]2 | [F,CF]>[F,=B,F] [F,CF]2 [F,_EF]2 | %3
 [F,DF]>[F,^CF] [F,DF]2 [F,C]2 | [F,CF]4 [F,CF]2 | [C,C]>[C,C] [C,C]2 [C,C]2 | %6
 [F,C]>[F,C][K:treble] [F,CF]2 [F,CF]2 | [G,CE]2 [G,CE]2 [G,=B,F]2 | [C,C]4 [C,B,]2 | %9
 [F,A,C]>[F,G,C] [F,A,C]2 [F,B,C]2 | [F,CF]>[F,=B,F] [F,CF]2 [F,_EF]2 | %11
 [F,DF]>[F,^CF] [F,DF]2 [F,C]2 | [F,CF]4 [F,F]>[F,G,F] | [F,A,F]>[F,_A,F] [F,=A,F]2 [F,A,F]2 | %14
 [B,F]2 [B,F]2 [G,DF]2 | [CF]2[K:bass] [C,C]2 [C,B,]2 |[M:2/4] [F,A,]4 |[M:1/4] [F,CF]2 | %18
[M:3/4] [CF]2 [A,C]2 [F,CF]2 | z2 G,2 C,2 | F,4 F,2 | z2 F,2 B,,2 | F,2 F,2 F,2 | C,4 C,2 | %24
 z2 G,2 C,2 | z2 C2 [F,A,F]2 | G,2 C2 C,2 | z2 A,2 [F,B,F]2 | A,2 z2 z2 | z2 A,2 C,2 | %30
[M:2/4] F,4 |] %31
V:3
 x6 | x6 | x6 | x6 | x6 | x6 | x2[K:treble] x4 | x6 | x6 | x6 | x6 | x6 | x6 | x6 | x6 | %15
 x2[K:bass] x4 |[M:2/4] x4 |[M:1/4] x2 |[M:3/4] F,4 z2 | C,4 z2 | x6 | B,,4 z2 | x6 | x6 | C,4 z2 | %25
 F,4 z2 | C,4 z2 | F,4 z2 | [F,F]2- [F,CF]2 B,,2 | C,4 z2 |[M:2/4] x4 |] %31
V:4
 x6 | x6 | x6 | x6 | x6 | x6 | x6 | x6 | x6 | x6 | x6 | x6 | x6 | x6 | x6 | x6 |[M:2/4] x4 | %17
[M:1/4] x2 |[M:3/4] x6 | x6 | x6 | x6 | x6 | x6 | x6 | A,2 z2 z2 | E4 z2 | [CA]2 z2 z2 | x6 | x6 | %30
[M:2/4] x4 |] %31

